v3-tracks/scheme.svg

<svg width="96" height="96" fill="none" xmlns="http://www.w3.org/2000/svg">
  <path d="M44 2.3093a8 8 0 018 0l33.5692 19.3812a8 8 0 014 6.9282v38.7624a7.9998 7.9998 0 01-4 6.9282L52 93.6905a7.9998 7.9998 0 01-8 0L10.4308 74.3093a7.9998 7.9998 0 01-4-6.9282V28.6187a8 8 0 014-6.9282L44 2.3093z" fill="#fff"/>
  <path fill-rule="evenodd" clip-rule="evenodd" d="M84.1907 22.9024L51.5701 4.069a7.233 7.233 0 00-7.2331 0L11.7165 22.9024a7.2332 7.2332 0 00-3.6166 6.2641v37.667a7.233 7.233 0 003.6166 6.264L44.337 91.931a7.233 7.233 0 007.2331 0l32.6206-18.8335a7.233 7.233 0 003.6165-6.264v-37.667a7.2333 7.2333 0 00-3.6165-6.2641zM53.1201 1.3844a10.333 10.333 0 00-10.333 0L10.1665 20.2178A10.3332 10.3332 0 005 29.1665v37.667a10.333 10.333 0 005.1665 8.9486l32.6206 18.8335a10.333 10.333 0 0010.333 0l32.6205-18.8335a10.333 10.333 0 005.1666-8.9486v-37.667a10.3332 10.3332 0 00-5.1666-8.9487L53.1201 1.3844z" fill="#000"/>
  <path d="M63.1423 61.8405h1.1806c0 3.4543-.5575 5.9686-1.6725 7.5427-1.115 1.5741-2.5252 2.3612-4.2305 2.3612-1.3773 0-2.7-.5138-3.9681-1.5414-1.268-1.0275-2.4049-3.815-3.4106-8.3625l-2.8203-12.7242-9.7728 22.169H32.25l14.036-30.2365c-.7433-3.9134-1.6397-6.8103-2.6891-8.6905-1.0495-1.8802-2.3503-2.8203-3.9026-2.8203-1.2462 0-2.3284.47-3.2466 1.4102-.9183.9401-1.443 2.4158-1.5741 4.4272H33.693c.0655-3.2139.7105-5.7827 1.9348-7.7067 1.2243-1.9239 2.7548-2.8968 4.5912-2.9187 1.1806 0 2.2956.481 3.3451 1.443 1.0494.9619 1.9676 2.6235 2.7547 4.9847.7871 2.3612 2.0005 7.2366 3.6402 14.6263l2.3284 10.3958c.9401 4.307 1.9239 7.182 2.9515 8.625 1.0275 1.4429 2.2737 2.1753 3.7385 2.1972 2.4487 0 3.837-1.7272 4.1649-5.1815z" fill="#000"/>
</svg>

<svg width="96" height="96" viewBox="0 0 96 96" fill="none" xmlns="http://www.w3.org/2000/svg">
<path d="M44 2.30935C46.4752 0.880283 49.5248 0.880284 52 2.30935L85.5692 21.6905C88.0444 23.1196 89.5692 25.7606 89.5692 28.6187V67.3811C89.5692 70.2393 88.0444 72.8803 85.5692 74.3093L52 93.6905C49.5248 95.1196 46.4752 95.1196 44 93.6905L10.4308 74.3093C7.95558 72.8803 6.43079 70.2393 6.43079 67.3811V28.6187C6.43079 25.7606 7.95558 23.1196 10.4308 21.6905L44 2.30935Z" fill="white"/>
<path fill-rule="evenodd" clip-rule="evenodd" d="M84.1907 22.9024L51.5701 4.06896C49.3322 2.77689 46.575 2.77689 44.337 4.06896L11.7165 22.9024C9.47853 24.1945 8.09991 26.5824 8.09991 29.1665V66.8335C8.09991 69.4176 9.47853 71.8055 11.7165 73.0975L44.337 91.931C46.575 93.2231 49.3322 93.2231 51.5701 91.931L84.1907 73.0975C86.4286 71.8055 87.8072 69.4176 87.8072 66.8335V29.1665C87.8072 26.5824 86.4286 24.1945 84.1907 22.9024ZM53.1201 1.38436C49.923 -0.461454 45.9841 -0.461455 42.7871 1.38436L10.1665 20.2178C6.96946 22.0637 5 25.4749 5 29.1665V66.8335C5 70.5251 6.96946 73.9363 10.1665 75.7821L42.7871 94.6156C45.9841 96.4614 49.923 96.4614 53.1201 94.6156L85.7406 75.7821C88.9377 73.9363 90.9071 70.5251 90.9071 66.8335V29.1665C90.9071 25.4749 88.9377 22.0637 85.7406 20.2178L53.1201 1.38436Z" fill="black"/>
<g clip-path="url(#clip0)">
<path d="M71.2056 69.7435H72.5729C72.5729 73.7442 71.9273 76.6561 70.6359 78.4792C69.3445 80.3023 67.7113 81.2139 65.7363 81.2139C64.1411 81.2139 62.6091 80.6188 61.1405 79.4287C59.6719 78.2387 58.3552 75.0102 57.1905 69.7435L53.9241 55.0067L42.6056 80.6821H35.4271L51.6831 45.6632C50.8222 41.1308 49.7841 37.7758 48.5687 35.5982C47.3533 33.4206 45.8467 32.3318 44.0489 32.3318C42.6056 32.3318 41.3522 32.8762 40.2887 33.965C39.2252 35.0538 38.6175 36.7629 38.4656 39.0925H37.0983C37.1742 35.3703 37.9212 32.3951 39.3392 30.1668C40.7572 27.9386 42.5296 26.8118 44.6566 26.7865C46.0239 26.7865 47.3153 27.3435 48.5307 28.4576C49.7461 29.5718 50.8096 31.4962 51.7211 34.2308C52.6327 36.9655 54.038 42.6121 55.9371 51.1705L58.6338 63.2107C59.7226 68.1989 60.862 71.5286 62.0521 73.1998C63.2422 74.871 64.6855 75.7192 66.382 75.7445C69.2179 75.7445 70.8258 73.7442 71.2056 69.7435Z" fill="black"/>
</g>
<defs>
<clipPath id="clip0">
<rect width="48" height="48" fill="white" transform="translate(24 24)"/>
</clipPath>
</defs>
</svg>
